!!!ONB: MCCC : IFP0062_03 : Extracted Monophonic Melody
!!!COM: Poulenc, Francis
!!!OPR: Mouvements perpétuels
!!!OMV: 3
!!!SCT: FP 14
!!!ODT: 1918///
**kern
*staff1
*clefG2
*k[b-]
*F:
*M4/4
16cc
16dd
16ee
4ff
8.ff
16ff
16gg
16ff
16ee
16dd
=2
8cc
16cc
16ee
8cc
16cc
16ee
8cc
16a
16b-
16cc
16b-
16a
16g
=3
*M7/4
16f
16cc
16dd
16ee
4ff
8.ff
16ff
16gg
16ff
16ee
16dd
8cc
16cc
16ee
8cc
16cc
16ee
8cc
16a
16b-
=4
*M4/4
16cc
16b-
16a
16g
4c
4d
4a
=5
8g
8a
4c
4d
4a
=6
8g
8a
4r
4r
4g
=7
8g
8g
4g
8g
8g
4g
=8
*M3/8
8g
8g
8aa
=9
4.aa[
=10
4aa]
8aa
=11
4.aa[
=12
4aa]
8aa
=13
4bb-
8bb-
=14
8bb-[
8bb-]
8aa
=15
4bb-
16bb-
16bb-[
=16
4bb-]
8r
=17
4.aa[
=18
4aa]
8aa
=19
4.aa[
=20
4aa]
16ee
16ff
=21
16gg
16ee
16ff
16gg
16ee
16ff
=22
16gg
16ee
16ff
16gg
16ee
16ff
=23
16gg
16ee
16ff
16gg
16ee
16ff
=24
16gg
16ee
16ff
16gg
8aa
=25
4.aa[
=26
4aa]
8aa
=27
4.aa[
=28
4aa]
8aa
=29
8r
8ccc
8aa[
=30
4aa]
8r
=31
8r
8ee
8gg
=32
48ff
48gg
12gg[
8gg]
8r
=33
8r
8ccc
48aa
48bb-
12bb-[
=34
4bb-]
8r
=35
8r
8ee
8gg
=36
48ff
48gg
12gg[
8gg]
8r
=37
*M4/4
8r
8a
4ff
8.ff
16ff
16gg
16ff
16ee
16dd
=38
8cc
16cc
16ee
8cc
16cc
16ee
8cc
16a
16b-
16cc
16b-
16a
16g
=39
*M7/4
16f
16cc
16dd
16ee
4ff
8.ff
16ff
16gg
16ff
16ee
16dd
8cc
16cc
16ee
8cc
16cc
16ee
8cc
16a
16b-
=40
*M4/4
16cc
16b-
16a
16g
4a
4a
4a
=41
4a
8a
8a
4a
4g[
=42
4g]
4r
8r
8dd
8dd
16dd[
16dd]
=43
8a
8a
4a
4a
4a
=44
4a
4a
8g
8a
4g[
=45
4g]
4r
2r
=46
1r
=47
4r
4aa
4aa
4aa
=48
4aa
8aa
16aa
16aa
4ccc
4ccc
=49
4ccc
8aa
8aa
8aa
8ddd
8ddd
16ddd
16ddd[
=50
8ddd]
8gg
8aa
8aa
4aa
16ddd
16ddd
8ddd[
=51
4ddd]
4G
4G
8G
8F
=52
8E
8D
4C
4G
4C[
=53
4C]
8r
8a
16a
16a[
16a]
32a
32a
32a
32a
16a
32a
32a
16a
=54
20a
40g
40a[
20.a]
40a[
20a]
8r
8a
16a
16a[
16a]
32a
32a
32a
32a
16a
32a
32a
16a
=55
*M5/4
20a
40g
40a[
20.a]
40a[
20a]
4c
4d
4a
8b-
8cc[
=56
4cc]
4ff
8.ff
16ff
16gg
16ff
16ee
16dd
8cc
16cc
16ee
=57
*M7/4
8cc
16cc
16ee
8cc
16a
16b-
16cc
16b-
16a
16g
16f
16cc
16dd
16ee
4ff
8.ff
16ff
16gg
16ff
16ee
16dd
=58
*M4/4
8cc
16cc
16ee
8cc
16cc
16ee
8cc
16a
16b-
16cc
16b-
16a
16g
=59
4c
4d
4a
8g
8a
=60
4c
4d
4a
8g
8a
=61
4r
4g
4.g
8g
=62
4g
8g
8g
4g
8g
8g
=63
*M3/8
4.aa[
=64
4.aa]
=65
4.aa[
=66
4.aa]
=67
8aa
4bb-
=68
4bb-[
8bb-]
=69
8aa
4bb-
=70
16bb-
16bb-[
4bb-]
=71
4.aa[
=72
4.aa]
=73
4.aa[
=74
4.aa]
=75
16ee
16ff
16gg
16ee
16ff
16gg
=76
16ee
16ff
16gg
16ee
16ff
16gg
=77
16ee
16ff
16gg
16ee
16ff
16gg
=78
16ee
16ff
16gg
16ee
16ff
16gg
=79
4.aa[
=80
4.aa]
=81
4.aa[
=82
4.aa]
=83
8r
8r
8ccc
=84
8aa[
4aa]
=85
8r
8r
8ee
=86
8gg
48ff
48gg
12gg[
8gg]
=87
8r
8r
8ccc
=88
48aa
48bb-
12bb-[
4bb-]
=89
8r
8r
8ee
=90
8gg
48ff
48gg
12gg[
8gg]
=91
8r
8r
8a
=92
*M4/4
4ff
8.ff
16ff
16gg
16ff
16ee
16dd
8cc
16cc
16ee
=93
8cc
16cc
16ee
8cc
16a
16b-
16cc
16b-
16a
16g
16f
16cc
16dd
16ee
=94
*M7/4
4ff
8.ff
16ff
16gg
16ff
16ee
16dd
8cc
16cc
16ee
8cc
16cc
16ee
8cc
16a
16b-
16cc
16b-
16a
16g
=95
*M4/4
4a
4a
4a
4a
=96
8a
8a
4a
2g
=97
4r
8r
8dd
8dd
16dd[
16dd]
8a
8a
=98
4a
4a
4a
4a
=99
8a
8a
4a
2g
=100
4a
16a
16a[
16a]
32a
32a
32a
32a
16a
32a
32a
16a
32a
32a
16a[
16a]
32a[
32a]
=101
4a
16a
16a[
16a]
32a
32a
32a
32a
16a
32a
32a
16a
32a
32a
16a[
16a]
32a[
32a]
=102
4aa
4aa
4aa
4aa
=103
8aa
8aa
4aa
8ccc
8ccc
4ccc
=104
8aa
8aa
8aa
8ddd
8ddd
16ddd
16ddd[
8ddd]
8gg
=105
8aa
8aa
4aa
8ddd
8ddd
8ddd[
8ddd]
=106
4G
4G
8G
8F
8E
8D
=107
4C
4G
2C
=108
4a
16a
16a[
16a]
32a
32a
32a
32a
16a
32a
32a
16a
32a
32a
16a[
16a]
32a[
32a]
=109
4a
16a
16a[
16a]
32a
32a
32a
32a
16a
32a
32a
16a
32a
32a
16a[
16a]
32a[
32a]
=110
*M5/4
4cc
4dd
8.aa
32.aa
64bb-
4ccc
4ddd
=111
4ddd
4ddd
2.ddd[
=112
2.ddd]
2r
==
*-
